X: 49
T:VALSE ITALIENNE
M:3/4
L:1/8
Q:1/4=88
K:C
|cB/2c/2B/2c/2 dc/2d/2c/2B/2|AB/2c/2B/2A/2 B3| cB/2c/2B/2c/2 dc/2d/2c/2B
/2|A2B A3|!
ed/2e/2d/2c/2 ed/2e/2d/2c/2|dc/2d/2c/2B/2 d3|cB/2c/2B/2A/2 c2A|A2B c3|
cB/2c/2B/2A/2 c2A|A2G A3|ed/2e/2d/2e/2 c3|BcB E3|
ed/2e/2d/2e/2 c3|Bcd e3|efe dcB|A3 A3|
